svg/free/mobile.svg

<svg version="1.1" xmlns="http://www.w3.org/2000/svg" width="24" height="24" viewBox="0 0 24 24">
<title>mobile</title>
<path d="M18 0.75h-11.625c-0.828 0.001-1.499 0.672-1.5 1.5v19.5c0.001 0.828 0.672 1.499 1.5 1.5h11.625c0.828-0.001 1.499-0.672 1.5-1.5v-19.5c-0.001-0.828-0.672-1.499-1.5-1.5h-0zM18 2.25l0 1.5h-11.625v-1.5zM18 5.25l0.001 10.5h-11.626v-10.5zM18 21.75h-11.625v-4.5h11.626l0 4.5z"></path>
<path d="M11.625 18.75h1.5v1.5h-1.5v-1.5z"></path>
</svg>

<svg xmlns="http://www.w3.org/2000/svg" width="24" height="24" viewBox="0 0 24 24"><path d="M18 .75H6.375a1.502 1.502 0 00-1.5 1.5v19.5a1.502 1.502 0 001.5 1.5H18a1.502 1.502 0 001.5-1.5V2.25A1.502 1.502 0 0018 .75zm0 1.5v1.5H6.375v-1.5zm0 3l.001 10.5H6.375V5.25zm0 16.5H6.375v-4.5h11.626v4.5z"/><path d="M11.625 18.75h1.5v1.5h-1.5v-1.5z"/></svg>
